src/assets/newGroup.svg

<svg width="current" height="current" viewBox="0 0 20 20" fill="none" xmlns="http://www.w3.org/2000/svg">
<g clip-path="url(#clip0_494_6278)">
<path d="M15.3526 5.97427C15.285 5.96525 15.2175 5.96525 15.1499 5.97427C13.6543 5.9292 12.4675 4.78459 12.4675 3.3786C12.4675 1.94558 13.7122 0.773926 15.2561 0.773926C16.7902 0.773926 18.0446 1.93657 18.0446 3.3786C18.035 4.78459 16.8481 5.9292 15.3526 5.97427Z" fill="#132743"/>
<path d="M18.5004 12.2205C17.4197 12.8965 15.9049 13.1488 14.5058 12.9776C14.8724 12.2385 15.0654 11.4184 15.075 10.5532C15.075 9.65189 14.8628 8.79568 14.4575 8.04762C15.8856 7.86737 17.4004 8.11972 18.4908 8.79568C20.0153 9.733 20.0153 11.2742 18.5004 12.2205Z" fill="#132743"/>
<path d="M4.65286 5.97427C4.7204 5.96525 4.78794 5.96525 4.85548 5.97427C6.35107 5.9292 7.53788 4.78459 7.53788 3.3786C7.53788 1.93657 6.29317 0.773926 4.74935 0.773926C3.21517 0.773926 1.97046 1.93657 1.97046 3.3786C1.97046 4.78459 3.15728 5.9292 4.65286 5.97427Z" fill="#132743"/>
<path d="M4.75983 10.5533C4.75983 11.4276 4.96245 12.2567 5.32911 13.0048C3.96862 13.14 2.55023 12.8696 1.50814 12.2297C-0.0163861 11.2834 -0.0163861 9.74219 1.50814 8.79585C2.54058 8.14694 3.99756 7.88556 5.36771 8.02977C4.9721 8.78684 4.75983 9.64305 4.75983 10.5533Z" fill="#132743"/>
<path d="M10.1339 13.2747C10.0567 13.2657 9.96986 13.2657 9.88302 13.2747C8.10762 13.2207 6.68921 11.8598 6.68921 10.1834C6.69886 8.47097 8.17516 7.08301 10.0181 7.08301C11.8514 7.08301 13.3373 8.47097 13.3373 10.1834C13.3277 11.8598 11.9189 13.2207 10.1339 13.2747Z" fill="#132743"/>
<path d="M6.99801 15.1406C5.54103 16.0509 5.54103 17.547 6.99801 18.4483C8.65765 19.4848 11.3786 19.4848 13.0383 18.4483C14.4952 17.538 14.4952 16.0419 13.0383 15.1406C11.3883 14.1042 8.66729 14.1042 6.99801 15.1406Z" fill="#132743"/>
</g>
<defs>
<clipPath id="clip0_494_6278">
<rect width="20" height="20" fill="white"/>
</clipPath>
</defs>
</svg>

<svg xmlns="http://www.w3.org/2000/svg" width="current" height="current" fill="none" viewBox="0 0 20 20"><g fill="#132743" clip-path="url(#a)"><path d="M15.353 5.974a.8.8 0 0 0-.203 0c-1.496-.045-2.683-1.19-2.683-2.595 0-1.433 1.245-2.605 2.79-2.605 1.533 0 2.788 1.163 2.788 2.605-.01 1.406-1.197 2.55-2.692 2.595M18.5 12.22c-1.08.676-2.595.929-3.994.758.366-.74.56-1.56.569-2.425a5.24 5.24 0 0 0-.617-2.505c1.428-.18 2.942.072 4.033.748 1.524.937 1.524 2.478.01 3.425M4.653 5.974a.8.8 0 0 1 .202 0c1.496-.045 2.683-1.19 2.683-2.595 0-1.442-1.245-2.605-2.789-2.605-1.534 0-2.779 1.163-2.779 2.605 0 1.406 1.187 2.55 2.683 2.595m.107 4.579c0 .875.202 1.704.57 2.452-1.361.135-2.78-.135-3.822-.775-1.524-.947-1.524-2.488 0-3.434 1.033-.65 2.49-.91 3.86-.766a5.4 5.4 0 0 0-.608 2.523m5.374 2.722a1.2 1.2 0 0 0-.251 0c-1.775-.054-3.194-1.415-3.194-3.092.01-1.712 1.486-3.1 3.33-3.1 1.832 0 3.318 1.388 3.318 3.1-.01 1.677-1.418 3.038-3.203 3.092M6.998 15.14c-1.457.91-1.457 2.407 0 3.308 1.66 1.037 4.38 1.037 6.04 0 1.457-.91 1.457-2.406 0-3.307-1.65-1.037-4.37-1.037-6.04 0"/></g><defs><clipPath id="a"><path fill="#fff" d="M0 0h20v20H0z"/></clipPath></defs></svg>
